X:91
T:Joe's Jigg
M:6/8
L:1/8
B:Thompson's Compleat Collection of 200 Favourite Country Dances, vol. 1 (London, 1757)
Z:Transcribed and edited by Fynnian Titford-Mock, 2007
Z:abc's:AK/Fiddler's Companion
K:D
DED F2A|EFE G2B|DED FAB|dAG FED|DED F2A|EFE G2B|ABc def|edc d3:|
|:(f>gf/e/) (f>gf/e/)|(f>gf/e/) f2A|Bcd ABc|dAG FED|DED FAd|EFE GBe|ABc def|edc d3:|

